images/antv1.svg

<svg height="250" viewBox="0 0 250 250" width="250" xmlns="http://www.w3.org/2000/svg" xmlns:xlink="http://www.w3.org/1999/xlink"><linearGradient id="a" gradientTransform="scale(.883392 .880282)" gradientUnits="userSpaceOnUse" x1="141.5" x2="141.5" y1="99.375198" y2="287.733002"><stop offset="0" stop-color="#01e8f8" stop-opacity=".05"/><stop offset="1" stop-color="#01e8f8" stop-opacity="0"/></linearGradient><linearGradient id="b"><stop offset="0" stop-color="#01e8f7"/><stop offset="1" stop-color="#00c2ff"/></linearGradient><linearGradient id="c" gradientTransform="scale(.883392 .880282)" gradientUnits="userSpaceOnUse" x1="232.389008" x2="237.798004" xlink:href="#b" y1="111.720001" y2="181.287003"/><linearGradient id="d" gradientTransform="scale(.883392 .880282)" gradientUnits="userSpaceOnUse" x1="111.560997" x2="184.824005" y1="63.190498" y2="179.059006"><stop offset="0" stop-color="#01e8f7"/><stop offset="1" stop-color="#00b3ec"/></linearGradient><linearGradient id="e" gradientTransform="scale(.883392 .880282)" gradientUnits="userSpaceOnUse" x1="138.643997" x2="145.197998" xlink:href="#b" y1="120.788002" y2="308.102997"/><path d="m0 0h250v250h-250z" fill="#fff"/><path d="m250 125c0 69.035156-55.964844 125-125 125s-125-55.964844-125-125 55.964844-125 125-125 125 55.964844 125 125zm0 0" fill="url(#a)"/><path d="m222.6875 116.734375c.867188-18.011719-11.714844-29.957031-25.910156-38.160156l-9.226563 54.210937c6.390625-.359375 9.511719 2.066406 10.648438 3.207032 1.417969 1.425781 4.96875 5.707031.707031 12.484374 8.875-1.429687 22.734375-9.988281 23.78125-31.742187zm0 0" fill="url(#c)"/><g fill-rule="evenodd"><path d="m101.644531 53.621094-11.003906-11.054688c16.5625-2.023437 60.265625.570313 102.566406 27.101563.710938 2.855469 0 7.132812 0 7.132812l3.550781 1.785157c3.074219 4.398437 8.304688 16.90625 4.613282 31.742187s-10.054688 21.160156-12.777344 22.464844c-5.675781 0-15.332031 3.28125-18.453125 17.832031-3.125 14.554688-9.109375 17.714844-11.710937 17.476562l-62.464844.714844-41.167969-24.253906-6.03125-50.285156 11.710937-15.691406 20.9375-17.121094 14.90625-6.0625zm73.769531 20.773437c-2.753906 2.867188-5.328124 4.246094-6.0625 4.617188-16.085937-3.421875-21.878906-11.742188-21.878906-11.742188 15.171875-.09375 28.863282 3.515625 38.878906 9.621094 0 0-5.421874-1.757813-10.9375-2.496094zm0 0" fill="url(#d)"/><path d="m169.589844 150.632812c-11.023438 5.410157-24.097656 8.542969-38.113282 8.542969-39.394531 0-71.335937-24.75-71.335937-55.28125 0-22.550781 17.429687-41.949219 42.417969-50.546875-47.523438 2.738282-85.714844 40.914063-85.714844 88.023438 0 54.367187 48.464844 99.289062 108.246094 99.289062 44.640625 0 81.800781-25.882812 101.226562-60.507812-26.734375 6.011718-58.378906-5.421875-56.726562-29.519532zm0 0" fill="url(#e)"/></g></svg>

<svg xmlns="http://www.w3.org/2000/svg" xmlns:xlink="http://www.w3.org/1999/xlink" width="250px" height="250px" viewBox="0 0 250 250" version="1.1">
<defs>
<linearGradient id="linear0" gradientUnits="userSpaceOnUse" x1="141.5" y1="99.375198" x2="141.5" y2="287.733002" gradientTransform="matrix(0.883392,0,0,0.880282,0,0)">
<stop offset="0" style="stop-color:rgb(0.392157%,90.980393%,97.254902%);stop-opacity:0.05;"/>
<stop offset="1" style="stop-color:rgb(0.392157%,90.980393%,97.254902%);stop-opacity:0;"/>
</linearGradient>
<linearGradient id="linear1" gradientUnits="userSpaceOnUse" x1="232.389008" y1="111.720001" x2="237.798004" y2="181.287003" gradientTransform="matrix(0.883392,0,0,0.880282,0,0)">
<stop offset="0" style="stop-color:rgb(0.392157%,90.980393%,96.862745%);stop-opacity:1;"/>
<stop offset="1" style="stop-color:rgb(0%,76.078433%,100%);stop-opacity:1;"/>
</linearGradient>
<linearGradient id="linear2" gradientUnits="userSpaceOnUse" x1="111.560997" y1="63.190498" x2="184.824005" y2="179.059006" gradientTransform="matrix(0.883392,0,0,0.880282,0,0)">
<stop offset="0" style="stop-color:rgb(0.392157%,90.980393%,96.862745%);stop-opacity:1;"/>
<stop offset="1" style="stop-color:rgb(0%,70.19608%,92.54902%);stop-opacity:1;"/>
</linearGradient>
<linearGradient id="linear3" gradientUnits="userSpaceOnUse" x1="138.643997" y1="120.788002" x2="145.197998" y2="308.102997" gradientTransform="matrix(0.883392,0,0,0.880282,0,0)">
<stop offset="0" style="stop-color:rgb(0.392157%,90.980393%,96.862745%);stop-opacity:1;"/>
<stop offset="1" style="stop-color:rgb(0%,76.078433%,100%);stop-opacity:1;"/>
</linearGradient>
</defs>
<g id="surface1">
<rect x="0" y="0" width="250" height="250" style="fill:rgb(100%,100%,100%);fill-opacity:1;stroke:none;"/>
<path style=" stroke:none;fill-rule:nonzero;fill:url(#linear0);" d="M 250 125 C 250 194.035156 194.035156 250 125 250 C 55.964844 250 0 194.035156 0 125 C 0 55.964844 55.964844 0 125 0 C 194.035156 0 250 55.964844 250 125 Z M 250 125 "/>
<path style=" stroke:none;fill-rule:nonzero;fill:url(#linear1);" d="M 222.6875 116.734375 C 223.554688 98.722656 210.972656 86.777344 196.777344 78.574219 L 187.550781 132.785156 C 193.941406 132.425781 197.0625 134.851562 198.199219 135.992188 C 199.617188 137.417969 203.167969 141.699219 198.90625 148.476562 C 207.78125 147.046875 221.640625 138.488281 222.6875 116.734375 Z M 222.6875 116.734375 "/>
<path style=" stroke:none;fill-rule:evenodd;fill:url(#linear2);" d="M 101.644531 53.621094 L 90.640625 42.566406 C 107.203125 40.542969 150.90625 43.136719 193.207031 69.667969 C 193.917969 72.523438 193.207031 76.800781 193.207031 76.800781 L 196.757812 78.585938 C 199.832031 82.984375 205.0625 95.492188 201.371094 110.328125 C 197.679688 125.164062 191.316406 131.488281 188.59375 132.792969 C 182.917969 132.792969 173.261719 136.074219 170.140625 150.625 C 167.015625 165.179688 161.03125 168.339844 158.429688 168.101562 L 95.964844 168.816406 L 54.796875 144.5625 L 48.765625 94.277344 L 60.476562 78.585938 L 81.414062 61.464844 L 96.320312 55.402344 Z M 175.414062 74.394531 C 172.660156 77.261719 170.085938 78.640625 169.351562 79.011719 C 153.265625 75.589844 147.472656 67.269531 147.472656 67.269531 C 162.644531 67.175781 176.335938 70.785156 186.351562 76.890625 C 186.351562 76.890625 180.929688 75.132812 175.414062 74.394531 Z M 175.414062 74.394531 "/>
<path style=" stroke:none;fill-rule:evenodd;fill:url(#linear3);" d="M 169.589844 150.632812 C 158.566406 156.042969 145.492188 159.175781 131.476562 159.175781 C 92.082031 159.175781 60.140625 134.425781 60.140625 103.894531 C 60.140625 81.34375 77.570312 61.945312 102.558594 53.347656 C 55.035156 56.085938 16.84375 94.261719 16.84375 141.371094 C 16.84375 195.738281 65.308594 240.660156 125.089844 240.660156 C 169.730469 240.660156 206.890625 214.777344 226.316406 180.152344 C 199.582031 186.164062 167.9375 174.730469 169.589844 150.632812 Z M 169.589844 150.632812 "/>
</g>
</svg>
